billpay/telecoms.svg

<svg width="48" height="48" viewBox="0 0 48 48" fill="none" xmlns="http://www.w3.org/2000/svg">
<mask id="mask0_3027_21362" style="mask-type:alpha" maskUnits="userSpaceOnUse" x="0" y="0" width="48" height="48">
<rect width="48" height="48" fill="#D9D9D9"/>
</mask>
<g mask="url(#mask0_3027_21362)">
<path d="M20 40H28V38H20V40ZM14 46C12.9 46 11.9583 45.6083 11.175 44.825C10.3917 44.0417 10 43.1 10 42V6C10 4.9 10.3917 3.95833 11.175 3.175C11.9583 2.39167 12.9 2 14 2H34C35.1 2 36.0417 2.39167 36.825 3.175C37.6083 3.95833 38 4.9 38 6V42C38 43.1 37.6083 44.0417 36.825 44.825C36.0417 45.6083 35.1 46 34 46H14ZM14 32H34V12H14V32Z" fill="white"/>
</g>
</svg>

<svg width="48" height="48" viewBox="0 0 48 48" fill="none" xmlns="http://www.w3.org/2000/svg"><path d="M20 40h8v-2h-8zm-6 6q-1.65 0-2.825-1.175T10 42V6q0-1.65 1.175-2.825T14 2h20q1.65 0 2.825 1.175T38 6v36q0 1.65-1.175 2.825T34 46zm0-14h20V12H14z" fill="#fff"/></svg>
